!!!COM: Dunstable, John
!!!OTL: O crux gloriosa
!!!ONM: No. 53
!!!YOR: from: "Musica Britannica" Vol. 8, edited by Manfred F. Bukofzer,
!!!YOR: 2nd rev. ed. (prepared by Margaret Bent, Ian Bent & Brian Trowell), pp.131-132
!!!YOO: Royal Musical Association (London)
!!!YOY: 1970
**kern	**kern	**kern
*ICvox	*ICvox	*ICvox
! tenor	! contratenor	! discantus
*M3/4	*M3/4	*M3/4
=1	=1	=1
*>A	*>A	*>A
!! Section 'A'; (O) mensuration.
[2.F	2.F	[2.f
=2	=2	=2
2.F]	2.BB-	2f]
.	.	4d
=3	=3	=3
2.BB-	2.B-	4f
.	.	4g
.	.	8f
.	.	8e
=4	=4	=4
2.C	2.G	2e
.	.	4g
=5	=5	=5
2F	4F	4.a
.	4r	.
.	.	16g
.	.	16a
4E-	4B-	8g
.	.	8f
=6	=6	=6
4F	4A	4f
2G	8G	4e
.	8G	.
.	8B-	8d
.	8A	8c
=7	=7	=7
[2.A	[2.F	[2.c
=8	=8	=8
2.A]	2.F]	2.c]
=9	=9	=9
[2.B-	[2.BB-	4.d
.	.	8e
.	.	4f
=10	=10	=10
2.B-]	2.BB-]	8d
.	.	4g
.	.	8f
.	.	8d
.	.	8c
=11	=11	=11
2.A	2.F	4c
.	.	4r
.	.	4f
=12	=12	=12
4F	2r	8f
.	.	4d
2G	.	.
.	.	8e-
.	4B-	8d
.	.	8B
=13	=13	=13
!! Temporary change of mensuration for discantus part only: (proportion 3)
!! -- to bar 15.
4F	8.c	8A
.	.	24B
.	.	12c
.	16A	.
2BB-	8B-	12d
.	.	24c
.	8A	24d
.	.	12e-x
.	8G	12d
.	.	12c
.	8F	.
.	.	24d
.	.	24B
=14	=14	=14
4D	4.F	6A
.	.	6B
2C	.	.
.	.	6c
.	4En	.
.	.	6A
.	8D	.
.	.	12G
!! Return of mensuration in discantus to (O).
=15	=15	=15
[2.BB-	2F	2.B
.	[4B-	.
=16	=16	=16
2.BB-]	4B-]	2.r
.	4.d	.
.	8c	.
=17	=17	=17
[2.F	4.c	2.A
.	8B-	.
.	4c	.
=18	=18	=18
4F]	4A	2d
2G	4G	.
.	4r	[4e
=19	=19	=19
2A	2c	4e]
.	.	2f
[4B-	4B-	.
=20	=20	=20
4B-]	4.G	4.g
2G	.	.
.	4.B-	8f
.	.	8e
.	.	16f
.	.	16d
=21	=21	=21
2.A	4F	8c
.	.	8d
.	4r	4e
.	4A	8c
.	.	[8f
=22	=22	=22
4.B-	4G	16f]
.	.	16e
.	.	4g
.	4D	.
8A	.	8f
4c	[4C	8e
.	.	[8c
=23	=23	=23
4A	4C]	16c]
.	.	16d
.	.	8.e
4B-	2BB-	.
.	.	16d
.	.	4f
4F	.	.
.	.	[8c
=24	=24	=24
4A	2r	8c]
.	.	8f
2G	.	8g
.	.	8e
.	4B-	8e
.	.	16d
.	.	16e
=25	=25	=25
[2.F	4c	2.f
.	8B-	.
.	4d	.
.	[8c	.
=26	=26	=26
2.F]	8c]	2r
.	8A	.
.	8F	.
.	4A	.
.	.	4f
.	8B-	.
=27	=27	=27
[2.C	2.c	2e
.	.	4e
=28	=28	=28
2.C]	2r	4.g
.	.	8f
.	4c	8e
.	.	8d
=29	=29	=29
2r	4.B-	2d
.	8G	.
4G	4B-	4d
=30	=30	=30
2G	8B-	2r
.	4d	.
.	4B-	.
4D	.	4f
.	8A	.
=31	=31	=31
2C	4c	8e
.	.	4g
.	8G	.
.	8.A	8e
4D	.	8f
.	16G	.
.	8B-	8e
=32	=32	=32
4F	4A	8c
.	.	4d
2E-	8G	.
.	4G	8c
.	.	8c
.	8F	8B
=33	=33	=33
[2.D	2.A	2.d
=34	=34	=34
2.D]	[2.d	2r
.	.	4d
=35	=35	=35
*>B	*>B	*>B
!! Section 'B'; (O) mensuration.
2.r	2d]	8f
.	.	8g
.	.	4.a
.	4c	.
.	.	8g
=36	=36	=36
2.r	4B-	4.g
.	2A	.
.	.	4f#
.	.	8e
=37	=37	=37
2.r	4.G	4g
.	.	8e
.	8A	4f
.	4B-	.
.	.	[8d
=38	=38	=38
2.r	4d	8d]
.	.	8f
.	8c	8e
.	4c	8c
.	.	4d
.	8Bnx	.
=39	=39	=39
2.r	4c	8c
.	.	8e
.	8A	8f
.	8B-	4g
.	4G	.
.	.	8e
=40	=40	=40
2.r	8A	8.c
.	4c	.
.	.	16d
.	.	8e
.	8B-	4d
.	4G	.
.	.	8B
=41	=41	=41
2.r	8A	4c
.	4F	.
.	.	4A
.	8D	.
.	4Enx	4G
=42	=42	=42
2.r	4.F	4F
.	.	4r
.	8G	.
.	4A	[4f
=43	=43	=43
2.r	4B-	8f]
.	.	4g
.	4c	.
.	.	8.e
.	8A	.
.	.	16d
.	8B-	[8d
=44	=44	=44
2.r	8G	8d]
.	8A	8c
.	8G	4B
.	4F	.
.	.	4A
.	8Enx	.
=45	=45	=45
2.r	2G	4G
.	.	4r
.	4r	4B
=46	=46	=46
2.r	4.F	8c
.	.	4.d
.	8D	.
.	8E-	8c
.	8F	8d
=47	=47	=47
2.r	8.G	8e-x
.	.	8.f
.	16F	.
.	8D	.
.	.	16e-x
.	8E-	4g
.	8.C	.
.	.	8e-x
.	16D	.
=48	=48	=48
2.r	8E-	8c
.	8G	8.d
.	4C	.
.	.	16e-x
.	.	8.c
.	4D	.
.	.	16A
.	.	8Bnx
=49	=49	=49
*>C	*>C	*>C
!! Section 'C'; (O) mensuration.
[2.C	4C	2.c
.	4r	.
.	4c	.
=50	=50	=50
2.C]	2c	2.r
.	4c	.
=51	=51	=51
2.F	2A	2c
.	4F	[4f
=52	=52	=52
[2.BB-	2r	4f]
.	.	4.g
.	4B-	.
.	.	8f
=53	=53	=53
2.BB-]	2.B-	2f
.	.	4d
=54	=54	=54
2.F	2A	8c
.	.	8d
.	.	8e
.	.	8.f
.	4F	.
.	.	16e
.	.	8d
=55	=55	=55
2.G	4E-	16c
.	.	16d
.	.	8e-x
.	4r	8d
.	.	8c
.	4G	4B
=56	=56	=56
2F	8A	8A
.	4F	8B
.	.	8c
.	8D	8d
4G	4C	8e-x
.	.	16d
.	.	16e-x
=57	=57	=57
4F	4.A	8f
.	.	4d
2E-	.	.
.	4G	8c
.	.	8B
.	8F	8c
=58	=58	=58
[2.D	4A	2.d
.	4r	.
.	[4d	.
=59	=59	=59
2.D]	8d]	2.r
.	8B-	.
.	8c	.
.	4B-	.
.	8A	.
=60	=60	=60
[2.C	2c	[2.en
.	8A	.
.	8G	.
=61	=61	=61
2.C]	2G	4en]
.	.	2g
.	[4c	.
=62	=62	=62
2.F	4c]	4.a
.	4.d	.
.	.	8g
.	.	8f
.	8B-	8d
=63	=63	=63
4.G	4B-	4e-
.	4G	2d
8A	.	.
4B-	4r	.
=64	=64	=64
4A	4F	4.c
[2c	4E-	.
.	.	8d
.	4C	4e-x
=65	=65	=65
2c]	4.C	4c
.	.	4.g
.	8B-	.
4B-	4E-	.
.	.	8f
=66	=66	=66
4A	4F	4f
2G	2C	4enx
.	.	8f
.	.	8d
=67	=67	=67
[2.F	[2.c	[2.f
=67a	=67a	=67a
2.F]	2.c]	2.f]
=68	=68	=68
*>D	*>D	*>D
!! Section 'D'; (C) mensuration.
*M4/4	*M4/4	*M4/4
[1BB-	[1B-	1f
=69	=69	=69
1BB-]	2B-]	4g
.	.	4f
.	[2F	2d
=70	=70	=70
[1F	4F]	4.c
.	2A	.
.	.	8B
.	.	4c
.	4c	4A
=71	=71	=71
1F]	4d	4B
.	4c	4c
.	4A	4d
.	4B-	[4f
=72	=72	=72
[1C	2c	8f]
.	.	8en
.	.	2g
.	2G	.
.	.	[4e
=73	=73	=73
2C]	2r	8e]
.	.	8d
.	.	4e
4F	4A	8c
.	.	4d
4G	4B-	.
.	.	8e
=74	=74	=74
4A	4c	4f
2B-	4B-	8g
.	.	8f
.	4G	8e
.	.	16f
.	.	16d
4A	8A	[4c
.	[8F	.
=75	=75	=75
2c	8F]	8c]
.	8F	8d
.	4C	4e
4B-	4r	8f
.	.	4g
4A	[4c	.
.	.	[8f
=76	=76	=76
2G	8c]	8f]
.	4B-	8e
.	.	8e
.	8A	8d
2F	4c	2f
.	8A	.
.	[8d	.
=77	=77	=77
2BB-	8d]	4r
.	8c	.
.	4.B-	4.f
2C	.	.
.	16A	8e
.	16B-	.
.	8A	[4g
.	8G	.
=78	=78	=78
2.BB-	4.B-	8g]
.	.	8f
.	.	4f
.	8F	.
.	4G	4d
4AA	4A	[4c
=79	=79	=79
4D	4F	8c]
.	.	8B
4BB-	4.F	[4B
2C	.	12B]
.	.	12A
.	4E-	.
.	.	12B
.	.	8A
.	8D	8G
=80	=80	=80
[1BB-	2F	2B
.	4G	2r
.	[4B-	.
=81	=81	=81
1BB-]	4B-]	4d
.	4A	4e
.	4F	4f
.	4G	8e
.	.	[8d
=82	=82	=82
[1F	4.A	8d]
.	.	8c
.	.	4c
.	8F	.
.	4F	4A
.	[4BB-	[4d
=83	=83	=83
2F]	4BB-]	8d]
.	.	8c
.	4F	2c
2A	2F	.
.	.	[4f
=84	=84	=84
2B-	4r	8f]
.	.	8e
.	4G	4g
2A	4A	4f
.	4c	[4e
=85	=85	=85
4G	8B-	8e]
.	8A	8d
4F	4.A	4d
2E-	.	8c
.	8G	8c
.	4G	8d
.	.	8B
=86	=86	=86
2D	2A	2.d
2BB-	2B-	.
.	.	[4f
=87	=87	=87
*>E	*>E	*>E
!! Section 'E'; (C) mensuration.
4F	1r	4f]
4G	.	4e-x
2A	.	2c
=88	=88	=88
1B-	1r	2B
.	.	4r
.	.	[4d
=89	=89	=89
2F	1r	8d]
.	.	8c
.	.	4c
4r	.	4A
4F	.	4c
=90	=90	=90
4G	1r	4B
2F	.	4A
.	.	2G
4Enx	.	.
=91	=91	=91
4F	1r	4F
4Enx	.	4G
4F	.	4.A
[4A	.	.
.	.	8B
=92	=92	=92
4A]	1r	4c
4F	.	4d
2G	.	4.e
.	.	8d
=93	=93	=93
1F	1r	2f
.	.	4r
.	.	4f
=94	=94	=94
4.C	1r	4g
.	.	8e
8BB-	.	4f
4D	.	.
.	.	8d
8E-	.	4c
[8F	.	.
=95	=95	=95
8F]	1r	8d
8G	.	8e
4F	.	4f
4G	.	8e-
.	.	4d
4F	.	.
.	.	[8c
=96	=96	=96
8E-	1r	8c]
8D	.	4d
4D	.	.
.	.	4B
2C	.	.
.	.	8A
.	.	8A
.	.	16G
.	.	16A
=97	=97	=97
2G	1r	2B
4D	.	4r
4E-	.	4c
=98	=98	=98
4F	1r	4A
4G	.	4B
4E-	.	4c
[4F	.	4d
=99	=99	=99
4F]	1r	2f
4A	.	.
2G	.	4e
.	.	[4d
=100	=100	=100
4B-	1r	8d]
.	.	8c
4A	.	4.c
2c	.	.
.	.	8d
.	.	8e
.	.	8f
=101	=101	=101
4B-	1r	4d
4c	.	4c
2A	.	4r
.	.	[4f
=102	=102	=102
2G	1r	8f]
.	.	8e
.	.	4g
2C	.	8g
.	.	4e
.	.	[8c
=103	=103	=103
4.En	1r	8c]
.	.	8Bnx
.	.	8c
8F	.	4d
4G	.	.
.	.	8B
4F	.	4A
=104	=104	=104
2Enx	1r	4G
.	.	4.c
2D	.	.
.	.	8Bnx
.	.	12Bnx
.	.	12c
.	.	12A
=105	=105	=105
*>F	*>F	*>F
!! Section 'F'; (O) mensuration.
*M3/4	*M3/4	*M3/4
[2.C	2r	2.c
.	4c	.
=106	=106	=106
2.C_	2.c	2r
.	.	4e
=107	=107	=107
2.C]	2G	4.e
.	.	8f
.	[4c	4g
=108	=108	=108
2F	4c]	4.a
.	4d	.
.	.	8g
4G	4B-	8e
.	.	8f
=109	=109	=109
4B-	4G	4d
4A	2A	4c
4F	.	4d
=110	=110	=110
4A	2c	4.f
2G	.	.
.	.	8e
.	8B-	8e
.	8A	8d
=111	=111	=111
2F	4d	2.f
.	8c	.
.	4A	.
[4D	.	.
.	[8B-	.
=112	=112	=112
4D]	8B-]	2r
.	4c	.
2C	.	.
.	4A	.
.	.	4e-
.	8G	.
=113	=113	=113
2.BB-	2B-	8d
.	.	4f
.	.	4d
.	4G	.
.	.	8B
=114	=114	=114
4D	4F	8A
.	.	8B
8E-	8G	4c
4F	8F	.
.	4D	8A
8G	.	8B
=115	=115	=115
8A	8C	8c
8B-	4BB-	4d
4G	.	.
.	8B-	8e
4F	8A	4f
.	8B-	.
=116	=116	=116
2C	4c	8e
.	.	4g
.	8G	.
.	4A	8e
8D	.	8f
8Enx	8G	8e
=117	=117	=117
4F	4A	8c
.	.	4d
4G	4G	.
.	.	8B
8F	4D	8A
8D	.	8B
=118	=118	=118
4E-	8C	8c
.	8G	4B
2C	8F	.
.	4Enx	8A
.	.	8A
.	8B-	16G
.	.	16A
=119	=119	=119
[2.BB-	[2.F	[2.B
=120	=120	=120
2.BB-]	2.F]	2.B]
==	==	==
*-	*-	*-
!!!ENC: Mark Laxton
!!!EDD: Mark Laxton
!!!YEC: Mark Laxton, 1987
!!!EMD: Reference records added by D. Huron, 2001
!!!EEV: 1.1
